src/img/ic_confirmacion.svg

<svg width="26" height="26" viewBox="0 0 26 26" fill="none" xmlns="http://www.w3.org/2000/svg">
<path d="M13 1.5C14.543 1.5 15.998 1.79297 17.3652 2.37891C18.7324 2.96484 19.9141 3.76562 20.9102 4.78125C21.9258 5.79688 22.7266 6.98828 23.3125 8.35547C23.8984 9.72266 24.1914 11.1777 24.1914 12.7207C24.1914 14.2637 23.8984 15.7188 23.3125 17.0859C22.7266 18.4531 21.9258 19.6445 20.9102 20.6602C19.8945 21.6562 18.7031 22.4473 17.3359 23.0332C15.9688 23.6191 14.5137 23.9121 12.9707 23.9121C11.4277 23.9121 9.97266 23.6191 8.60547 23.0332C7.23828 22.4473 6.04688 21.6465 5.03125 20.6309C4.03516 19.6152 3.24414 18.4238 2.6582 17.0566C2.07227 15.6895 1.7793 14.2344 1.7793 12.6914C1.7793 11.5586 1.93555 10.4746 2.24805 9.43945C2.58008 8.38477 3.03906 7.4082 3.625 6.50977C4.23047 5.61133 4.95312 4.81055 5.79297 4.10742C6.63281 3.4043 7.57031 2.82812 8.60547 2.37891C9.30859 2.08594 10.0312 1.87109 10.7734 1.73438C11.5156 1.57812 12.2578 1.5 13 1.5ZM13 0.240234C11.2812 0.240234 9.66016 0.572266 8.13672 1.23633C6.61328 1.88086 5.28516 2.76953 4.15234 3.90234C3.01953 5.03516 2.13086 6.36328 1.48633 7.88672C0.822266 9.41016 0.490234 11.0312 0.490234 12.75C0.490234 14.4688 0.822266 16.0898 1.48633 17.6133C2.13086 19.1367 3.01953 20.4648 4.15234 21.5977C5.28516 22.7305 6.61328 23.6191 8.13672 24.2637C9.66016 24.9277 11.2812 25.2598 13 25.2598C14.7187 25.2598 16.3398 24.9277 17.8633 24.2637C19.3867 23.6191 20.7148 22.7305 21.8477 21.5977C22.9805 20.4648 23.8691 19.1367 24.5137 17.6133C25.1777 16.0898 25.5098 14.4688 25.5098 12.75C25.5098 11.0312 25.1777 9.41016 24.5137 7.88672C23.8691 6.36328 22.9805 5.03516 21.8477 3.90234C20.7148 2.76953 19.3867 1.88086 17.8633 1.23633C16.3398 0.572266 14.7187 0.240234 13 0.240234ZM11.1543 17.7305C11.0762 17.7305 10.998 17.7207 10.9199 17.7012C10.8418 17.6621 10.7734 17.6133 10.7148 17.5547L6.96484 13.8047C6.82812 13.6875 6.75 13.5508 6.73047 13.3945C6.73047 13.2188 6.78906 13.0625 6.90625 12.9258C7.02344 12.8086 7.16992 12.75 7.3457 12.75C7.52148 12.7305 7.66797 12.7793 7.78516 12.8965C7.80469 12.8965 7.81445 12.9062 7.81445 12.9258C7.81445 12.9258 7.82422 12.9258 7.84375 12.9258L11.1543 16.2363L18.3027 9.17578C18.4395 9.05859 18.5859 9 18.7422 9C18.918 9 19.0645 9.06836 19.1816 9.20508C19.2988 9.32227 19.3574 9.46875 19.3574 9.64453C19.3574 9.80078 19.2988 9.9375 19.1816 10.0547L11.5938 17.5547C11.5352 17.6133 11.4668 17.6621 11.3887 17.7012C11.3105 17.7207 11.2324 17.7305 11.1543 17.7305Z" fill="#008859"/>
</svg>

<svg width="26" height="26" fill="none" xmlns="http://www.w3.org/2000/svg"><path d="M13 1.5c1.543 0 2.998.293 4.365.879A10.944 10.944 0 0120.91 4.78a11.287 11.287 0 012.402 3.574 10.97 10.97 0 01.88 4.366c0 1.543-.294 2.998-.88 4.365a11.288 11.288 0 01-2.402 3.574 11.544 11.544 0 01-3.574 2.373 10.964 10.964 0 01-4.365.88 10.97 10.97 0 01-4.366-.88 11.287 11.287 0 01-3.574-2.402 11.544 11.544 0 01-2.373-3.574 10.964 10.964 0 01-.879-4.366c0-1.132.157-2.216.47-3.252a11.845 11.845 0 011.376-2.93 11.507 11.507 0 014.98-4.13 10.626 10.626 0 012.168-.645A10.78 10.78 0 0113 1.5zm0-1.26c-1.719 0-3.34.332-4.863.996a12.412 12.412 0 00-3.985 2.666 12.412 12.412 0 00-2.666 3.985A12.038 12.038 0 00.49 12.75c0 1.719.332 3.34.996 4.863a12.413 12.413 0 002.666 3.985 12.413 12.413 0 003.985 2.666c1.523.664 3.144.996 4.863.996 1.719 0 3.34-.332 4.863-.996a12.415 12.415 0 003.985-2.666 12.415 12.415 0 002.666-3.985 12.04 12.04 0 00.996-4.863c0-1.719-.332-3.34-.996-4.863a12.413 12.413 0 00-2.666-3.985 12.413 12.413 0 00-3.985-2.666A12.038 12.038 0 0013 .24zm-1.846 17.49a.965.965 0 01-.234-.029.783.783 0 01-.205-.146l-3.75-3.75a.636.636 0 01-.235-.41.7.7 0 01.176-.47.596.596 0 01.44-.175.51.51 0 01.44.146c.019 0 .028.01.028.03h.03l3.31 3.31 7.149-7.06a.664.664 0 01.44-.176c.175 0 .322.068.439.205a.596.596 0 01.175.44.562.562 0 01-.175.41l-7.588 7.5a.783.783 0 01-.205.146.965.965 0 01-.235.03z" fill="#008859"/></svg>
